img/mail.svg

<?xml version="1.0" encoding="UTF-8" standalone="no"?>
<!-- Created with Inkscape (http://www.inkscape.org/) -->

<svg
   xmlns:dc="http://purl.org/dc/elements/1.1/"
   xmlns:cc="http://creativecommons.org/ns#"
   xmlns:rdf="http://www.w3.org/1999/02/22-rdf-syntax-ns#"
   xmlns:svg="http://www.w3.org/2000/svg"
   xmlns="http://www.w3.org/2000/svg"
   xmlns:xlink="http://www.w3.org/1999/xlink"
   xmlns:sodipodi="http://sodipodi.sourceforge.net/DTD/sodipodi-0.dtd"
   xmlns:inkscape="http://www.inkscape.org/namespaces/inkscape"
   version="1.0"
   width="32"
   height="32"
   id="svg3197"
   inkscape:version="0.48.3.1 r9886"
   sodipodi:docname="mail.svg"
   inkscape:export-filename="mail.png"
   inkscape:export-xdpi="90"
   inkscape:export-ydpi="90">
  <metadata
     id="metadata12">
    <rdf:RDF>
      <cc:Work
         rdf:about="">
        <dc:format>image/svg+xml</dc:format>
        <dc:type
           rdf:resource="http://purl.org/dc/dcmitype/StillImage" />
        <dc:title></dc:title>
      </cc:Work>
    </rdf:RDF>
  </metadata>
  <sodipodi:namedview
     pagecolor="#ffffff"
     bordercolor="#666666"
     borderopacity="1"
     objecttolerance="10"
     gridtolerance="10"
     guidetolerance="10"
     inkscape:pageopacity="0"
     inkscape:pageshadow="2"
     inkscape:window-width="1280"
     inkscape:window-height="745"
     id="namedview10"
     showgrid="false"
     inkscape:zoom="13.409091"
     inkscape:cx="14.767899"
     inkscape:cy="12.005142"
     inkscape:window-x="0"
     inkscape:window-y="27"
     inkscape:window-maximized="1"
     inkscape:current-layer="svg3197"
     fit-margin-top="0"
     fit-margin-left="0"
     fit-margin-right="0"
     fit-margin-bottom="0" />
  <defs
     id="defs3199">
    <linearGradient
       x1="45.52272"
       y1="0.94087785"
       x2="45.52272"
       y2="34.003155"
       id="linearGradient2388"
       xlink:href="#linearGradient3678"
       gradientUnits="userSpaceOnUse"
       gradientTransform="matrix(0.77197262,0,0,1.0573243,-66.070441,-7.851394)" />
    <linearGradient
       id="linearGradient3678">
      <stop
         style="stop-color:#ffffff;stop-opacity:1;"
         offset="0"
         id="stop3680" />
      <stop
         style="stop-color:#e6e6e6;stop-opacity:1;"
         offset="1"
         id="stop3682" />
    </linearGradient>
    <linearGradient
       gradientTransform="matrix(-0.4100229,0,0,0.5447147,78.029995,-3.8459034)"
       gradientUnits="userSpaceOnUse"
       xlink:href="#linearGradient3678"
       id="linearGradient2388-2"
       y2="38.279892"
       x2="159.68553"
       y1="14.403693"
       x1="159.68553" />
  </defs>
  <path
     sodipodi:nodetypes="sssssssssccccccccccccccccc"
     inkscape:connector-curvature="0"
     style="fill:#000000;fill-opacity:1;fill-rule:nonzero;stroke:none;stroke-width:1;marker:none;visibility:visible;display:inline;overflow:visible;enable-background:accumulate"
     id="path3778"
     d="M 1.7777778,5 C 0.7928889,5 0,5.793514 0,6.778402 L 0,23.224056 C 0,24.208944 0.7928889,25 1.7777778,25 L 30.222222,25 C 31.207112,25 32,24.208944 32,23.224056 L 32,6.778402 C 32,5.793514 31.207112,5 30.222222,5 z m 1.5,2.05618 12.1666662,12.166666 1.055556,0 12.222222,-12.166666 1.222222,1.222222 -7.277776,7.38889 5.5,5.61111 -1.222224,1.222224 -5.61111,-5.611112 -4.055556,4.111112 -2.555556,0 L 10.666667,16.889514 5.0555556,22.55618 3.8333332,21.278402 9.388889,15.667292 2.0555556,8.278402 z" />
  <path
     d="M 1.7777778,6 C 0.7928889,6 0,6.793514 0,7.778402 L 0,24.224056 C 0,25.208944 0.7928889,26 1.7777778,26 L 30.222222,26 C 31.207112,26 32,25.208944 32,24.224056 L 32,7.778402 C 32,6.793514 31.207112,6 30.222222,6 z m 1.5,2.05618 12.1666662,12.166666 1.055556,0 12.222222,-12.166666 1.222222,1.222222 -7.277776,7.38889 5.5,5.61111 -1.222224,1.222224 -5.61111,-5.611112 -4.055556,4.111112 -2.555556,0 L 10.666667,17.889514 5.0555556,23.55618 3.8333332,22.278402 9.388889,16.667292 2.0555556,9.278402 z"
     id="rect3170"
     style="opacity:1;fill:#ffffff;fill-opacity:1;fill-rule:nonzero;stroke:none;stroke-width:1;marker:none;visibility:visible;display:inline;overflow:visible;enable-background:accumulate"
     inkscape:connector-curvature="0"
     sodipodi:nodetypes="sssssssssccccccccccccccccc" />
</svg>

<?xml version="1.0" encoding="UTF-8" standalone="no"?>
<svg xmlns:rdf="http://www.w3.org/1999/02/22-rdf-syntax-ns#" xmlns="http://www.w3.org/2000/svg" height="32" width="32" version="1.0" xmlns:cc="http://creativecommons.org/ns#" xmlns:xlink="http://www.w3.org/1999/xlink" xmlns:dc="http://purl.org/dc/elements/1.1/">
 <path fill="#FFF" d="m1.7778 6c-0.98491 0-1.7778 0.7935-1.7778 1.7784v16.446c0 0.985 0.79289 1.776 1.7778 1.776h28.444c0.985 0 1.778-0.791 1.778-1.776v-16.446c0-0.9849-0.793-1.7784-1.778-1.7784zm1.5 2.0562 12.167 12.167h1.0556l12.222-12.167 1.2222 1.2222-7.2778 7.3889 5.5 5.6111-1.2222 1.2222-5.6111-5.6111-4.0556 4.1111h-2.5556l-4.055-4.11-5.6114 5.666-1.2223-1.278 5.5556-5.611-7.3333-7.3886z"/>
</svg>
